X: 36283
T: Seamus Cooley's
R: jig
M: 6/8
K: Dmixolydian
FDD cAA|dcA AGE|FDD cAA|dcA G2A|
FDD cAA|Add efg|faf ded|cAF G3:|
Add fed|eAB cAG|Add fed|eAB c2B|
Add fed|cAB cde|fag efd|dcA G3:|

